X: 24730
T: Mad Madra, The
R: polka
M: 2/4
K: Dminor
|:F>A cA|dc AG|F>A cA|de fA|
F>A cA|dc AG|FD CA,|1 D2 DE:|2 D2 D2||
|:D>E F2|D>E F2|FA cA|de f2|
D>E F2|D>E F2|FA cA|1 D2 D2:|2 D2 DE||

